assets/fonts/svg-files-for-custom-font/calendar.svg

<svg enable-background="new 0 0 20 20" viewBox="0 0 20 20" xmlns="http://www.w3.org/2000/svg"><path d="m17 3h-1v2h-3v-2h-6v2h-3v-2h-1c-1.101 0-2 .9-2 2v12c0 1.1.899 2 2 2h14c1.1 0 2-.9 2-2v-12c0-1.1-.9-2-2-2zm0 14h-14v-8h14zm-10.5-16h-2v3.5h2zm9 0h-2v3.5h2z"/></svg>

<?xml version="1.0" encoding="utf-8"?>
<!-- Generator: Adobe Illustrator 18.1.0, SVG Export Plug-In . SVG Version: 6.00 Build 0)  -->
<!DOCTYPE svg PUBLIC "-//W3C//DTD SVG 1.1//EN" "http://www.w3.org/Graphics/SVG/1.1/DTD/svg11.dtd">
<svg version="1.1" id="Calendar" xmlns="http://www.w3.org/2000/svg" xmlns:xlink="http://www.w3.org/1999/xlink" x="0px" y="0px"
	 viewBox="0 0 20 20" enable-background="new 0 0 20 20" xml:space="preserve">
<path d="M17,3h-1v2h-3V3H7v2H4V3H3C1.899,3,1,3.9,1,5v12c0,1.1,0.899,2,2,2h14c1.1,0,2-0.9,2-2V5C19,3.9,18.1,3,17,3z M17,17H3V9h14
	V17z M6.5,1h-2v3.5h2V1z M15.5,1h-2v3.5h2V1z"/>
</svg>
